public/svgs/twin/anatomy-m0-2.svg

<svg width="100%" height="100%" viewBox="0 0 32 32" fill="none" xmlns="http://www.w3.org/2000/svg">
<path d="M6.66632 28.0003C5.53299 28.0003 4.58299 27.617 3.81632 26.8503C3.04965 26.0837 2.66632 25.1337 2.66632 24.0003V18.4337L6.16632 9.06699C6.43299 8.33366 6.89965 7.75033 7.56632 7.31699C8.23299 6.88366 8.95521 6.66699 9.73299 6.66699C10.3108 6.66699 10.8552 6.81144 11.3663 7.10033C11.8774 7.38921 12.2997 7.7781 12.633 8.26699V12.0003L9.23299 15.4003L10.6663 16.8003L14.6663 12.8003V2.66699H17.333V12.8003L21.333 16.8003L22.733 15.4003L19.333 12.0003V8.26699C19.6663 7.7781 20.0885 7.38921 20.5997 7.10033C21.1108 6.81144 21.6552 6.66699 22.233 6.66699C23.0108 6.66699 23.7274 6.88366 24.383 7.31699C25.0385 7.75033 25.5108 8.33366 25.7997 9.06699L29.2997 18.4337V24.0003C29.2997 25.1337 28.9108 26.0837 28.133 26.8503C27.3552 27.617 26.4108 28.0003 25.2997 28.0003H21.2997C20.1885 28.0003 19.2497 27.617 18.483 26.8503C17.7163 26.0837 17.333 25.1337 17.333 24.0003V21.3337L17.833 17.1003L15.9997 15.2337L14.133 17.1003L14.6663 21.3337V24.0003C14.6663 25.1337 14.2774 26.0837 13.4997 26.8503C12.7219 27.617 11.7774 28.0003 10.6663 28.0003H6.66632Z" fill="current"/>
</svg>

<svg xmlns="http://www.w3.org/2000/svg" fill="none" viewBox="0 0 32 32"><path fill="current" d="M6.666 28q-1.7 0-2.85-1.15T2.666 24v-5.566l3.5-9.367a3.44 3.44 0 0 1 1.4-1.75 3.9 3.9 0 0 1 2.167-.65q.867 0 1.633.433.767.434 1.267 1.167V12l-3.4 3.4 1.433 1.4 4-4V2.667h2.667V12.8l4 4 1.4-1.4-3.4-3.4V8.267A3.74 3.74 0 0 1 20.6 7.1a3.27 3.27 0 0 1 1.633-.433 3.8 3.8 0 0 1 2.15.65 3.66 3.66 0 0 1 1.417 1.75l3.5 9.367V24q0 1.701-1.167 2.85T25.3 28h-4q-1.666 0-2.817-1.15-1.15-1.149-1.15-2.85v-2.666l.5-4.234L16 15.234 14.133 17.1l.533 4.234V24q0 1.701-1.166 2.85Q12.333 28 10.666 28z"/></svg>
